dist/img/svg/search-black.svg

<svg width="20" height="20" viewBox="0 0 20 20" fill="none" xmlns="http://www.w3.org/2000/svg">
<path d="M19.8102 18.9119L14.6466 13.8308C15.9988 12.3616 16.8296 10.4187 16.8296 8.28068C16.8289 3.7071 13.0618 0 8.41447 0C3.76713 0 0 3.7071 0 8.28068C0 12.8543 3.76713 16.5614 8.41447 16.5614C10.4224 16.5614 12.2641 15.8668 13.7107 14.7122L18.8944 19.8134C19.147 20.0622 19.5571 20.0622 19.8096 19.8134C20.0628 19.5646 20.0628 19.1607 19.8102 18.9119ZM8.41447 15.2873C4.48231 15.2873 1.29468 12.1504 1.29468 8.28068C1.29468 4.41101 4.48231 1.27403 8.41447 1.27403C12.3467 1.27403 15.5343 4.41101 15.5343 8.28068C15.5343 12.1504 12.3467 15.2873 8.41447 15.2873Z" fill="#242424"/>
</svg>

<svg width="20" height="20" fill="none" xmlns="http://www.w3.org/2000/svg"><path d="M19.81 18.912l-5.163-5.081a8.168 8.168 0 002.183-5.55C16.829 3.707 13.062 0 8.414 0 3.767 0 0 3.707 0 8.28c0 4.574 3.767 8.281 8.414 8.281 2.008 0 3.85-.694 5.297-1.849l5.183 5.101a.654.654 0 00.916 0 .63.63 0 000-.901zM8.414 15.287c-3.932 0-7.12-3.137-7.12-7.006 0-3.87 3.188-7.007 7.12-7.007 3.933 0 7.12 3.137 7.12 7.007 0 3.87-3.187 7.006-7.12 7.006z" fill="#242424"/></svg>
